static/favicon.svg

<svg xmlns="http://www.w3.org/2000/svg" viewBox="0 0 100 100">
  <rect width="100" height="100" rx="20"/>
  <path fill="#fff" d="M44.27 41.15q0 2.7-1.41 4.68-1.41 1.98-4.23 3.18 3.48 1.14 5.22 3.42 1.74 2.28 1.74 5.4 0 5.7-4.14 8.46-4.14 2.76-12 2.76-1.14 0-2.43-.06-1.29-.06-2.61-.21-1.32-.15-2.64-.42t-2.46-.63q-2.88-.96-2.88-3.54V34.85q0-1.14.6-1.74.6-.6 1.68-.96 2.04-.66 4.74-.93t5.64-.27q7.26 0 11.22 2.49 3.96 2.49 3.96 7.71Zm-6.6 16.38q0-2.4-1.71-3.78t-4.95-1.38h-7.02v10.02q1.14.3 2.73.42t3.15.12q3.66 0 5.73-1.29 2.07-1.29 2.07-4.11ZM23.99 37.37v9.3h6.06q3.24 0 4.83-1.32 1.59-1.32 1.59-3.66 0-4.74-7.32-4.74-1.5 0-2.85.12t-2.31.3Zm51.12 28.26-1.8-6H59.87q-.66 2.22-1.41 4.62-.75 2.4-1.23 3.96-.6.24-1.29.42-.69.18-1.71.18-2.04 0-3.18-.81-1.14-.81-1.14-2.31 0-.72.21-1.41t.51-1.59q.48-1.68 1.29-4.05t1.74-5.16q.93-2.79 2.01-5.76 1.08-2.97 2.07-5.76.99-2.79 1.92-5.22.93-2.43 1.59-4.17.78-.42 2.31-.84t3.09-.42q2.1 0 3.84.63 1.74.63 2.22 2.01 1.2 3.3 2.64 7.59 1.44 4.29 2.91 8.85 1.47 4.56 2.85 8.94 1.38 4.38 2.46 7.86-.6.66-1.65 1.11-1.05.45-2.49.45-2.1 0-2.97-.75-.87-.75-1.35-2.37Zm-8.22-27.48h-.3q-.54 1.5-1.17 3.36-.63 1.86-1.32 3.87-.69 2.01-1.41 4.08-.72 2.07-1.38 4.05h10.44l-4.86-15.36Z"/>
</svg>

<svg xmlns="http://www.w3.org/2000/svg" width="256" height="256" viewBox="0 0 100 100"><rect width="100" height="100" rx="20" fill="#000000"></rect><path fill="#fff" d="M44.27 41.15L44.27 41.15Q44.27 43.85 42.86 45.83Q41.45 47.81 38.63 49.01L38.63 49.01Q42.11 50.15 43.85 52.43Q45.59 54.71 45.59 57.83L45.59 57.83Q45.59 63.53 41.45 66.29Q37.31 69.05 29.45 69.05L29.45 69.05Q28.31 69.05 27.02 68.99Q25.73 68.93 24.41 68.78Q23.09 68.63 21.77 68.36Q20.45 68.09 19.31 67.73L19.31 67.73Q16.43 66.77 16.43 64.19L16.43 64.19L16.43 34.85Q16.43 33.71 17.03 33.11Q17.63 32.51 18.71 32.15L18.71 32.15Q20.75 31.49 23.45 31.22Q26.15 30.95 29.09 30.95L29.09 30.95Q36.35 30.95 40.31 33.44Q44.27 35.93 44.27 41.15ZM37.67 57.53L37.67 57.53Q37.67 55.13 35.96 53.75Q34.25 52.37 31.01 52.37L31.01 52.37L23.99 52.37L23.99 62.39Q25.13 62.69 26.72 62.81Q28.31 62.93 29.87 62.93L29.87 62.93Q33.53 62.93 35.60 61.64Q37.67 60.35 37.67 57.53ZM23.99 37.37L23.99 46.67L30.05 46.67Q33.29 46.67 34.88 45.35Q36.47 44.03 36.47 41.69L36.47 41.69Q36.47 36.95 29.15 36.95L29.15 36.95Q27.65 36.95 26.30 37.07Q24.95 37.19 23.99 37.37L23.99 37.37ZM75.11 65.63L73.31 59.63L59.87 59.63Q59.21 61.85 58.46 64.25Q57.71 66.65 57.23 68.21L57.23 68.21Q56.63 68.45 55.94 68.63Q55.25 68.81 54.23 68.81L54.23 68.81Q52.19 68.81 51.05 68Q49.91 67.19 49.91 65.69L49.91 65.69Q49.91 64.97 50.12 64.28Q50.33 63.59 50.63 62.69L50.63 62.69Q51.11 61.01 51.92 58.64Q52.73 56.27 53.66 53.48Q54.59 50.69 55.67 47.72Q56.75 44.75 57.74 41.96Q58.73 39.17 59.66 36.74Q60.59 34.31 61.25 32.57L61.25 32.57Q62.03 32.15 63.56 31.73Q65.09 31.31 66.65 31.31L66.65 31.31Q68.75 31.31 70.49 31.94Q72.23 32.57 72.71 33.95L72.71 33.95Q73.91 37.25 75.35 41.54Q76.79 45.83 78.26 50.39Q79.73 54.95 81.11 59.33Q82.49 63.71 83.57 67.19L83.57 67.19Q82.97 67.85 81.92 68.30Q80.87 68.75 79.43 68.75L79.43 68.75Q77.33 68.75 76.46 68Q75.59 67.25 75.11 65.63L75.11 65.63ZM66.89 38.15L66.59 38.15Q66.05 39.65 65.42 41.51Q64.79 43.37 64.10 45.38Q63.41 47.39 62.69 49.46Q61.97 51.53 61.31 53.51L61.31 53.51L71.75 53.51L66.89 38.15Z"></path></svg>
